X: 10
%%musicspace 0pt
T: Pet of the Pipers
I: Pet of the Pipers	J-56	G	jig	Set 44
M: 6/8
R: jig
K: G
"G"G3 BAG| dBG gdB| G3 BAG| "Am"FED "D"cBA|
"G"G3 BAG| dBG g2d| "C"efg "G"dBG |1 "D"cAF "G"G2D :|2 "D"cAF "G"GBd |]
|:"C"g3 efg| "D"agf "G"ged| "C"g3 efg| "D"agf "G"g2d|
"C"gfe "G"dcB| "C"edc "G"BAG| "C"efg "G"dBG| "D"cAF "G"G3 :|
%%text Roaring Jelly J-56
%%text 08/29/98 

#include "RightHeader.h"
% ---------- set 45 ----------
% Swallow's Nest (D) / Ship in Full Sail (G) / Port an Brathair (D)
%%text Set 45
%%vskip -1cm
